X:675
T: "Reimlied"
N: Z1356
O: Europa, Mitteleuropa, Deutschland, Franken
R: Kinder - Lied
M: 2/4
L: 1/8
K: F
F2F2 | c4 |
B2GE | F2z2 |
A2Ac | c2B2 |
G2GB | A2z2 |
F2FF | G2B2 |
AcAG | F2z2

@@@ Tune index: 10433
